X: 35894
T: Sandy M'Gaff
R: jig
M: 6/8
K: Edorian
|:E3 EFG|~B3 Bcd|E3 EFG|BAG FED|
E3 EFG|B2 c d2 e|~f3 ~e3|dcB AGF:|
|:E2e e2g|fe^d e3|E2e e2g|fga g2E|
DFA d2 e|fec d3|DFA d2B|ABG FED:|

